public/assets/img/logo/logo.svg

<?xml version="1.0" encoding="UTF-8" standalone="no"?>
<svg
   width="115.22289"
   height="34.081196"
   viewBox="0 0 115.22289 34.081196"
   fill="none"
   version="1.1"
   id="svg33"
   sodipodi:docname="logo.svg"
   xmlns:inkscape="http://www.inkscape.org/namespaces/inkscape"
   xmlns:sodipodi="http://sodipodi.sourceforge.net/DTD/sodipodi-0.dtd"
   xmlns="http://www.w3.org/2000/svg"
   xmlns:svg="http://www.w3.org/2000/svg">
  <sodipodi:namedview
     id="namedview33"
     pagecolor="#ffffff"
     bordercolor="#000000"
     borderopacity="0.25"
     inkscape:showpageshadow="2"
     inkscape:pageopacity="0.0"
     inkscape:pagecheckerboard="0"
     inkscape:deskcolor="#d1d1d1" />
  <path
     d="m 109.04689,22.088067 c 0,-0.719022 0.288,-1.318221 0.864,-1.797509 0.575,-0.489393 1.317,-0.733999 2.224,-0.733999 0.919,0 1.66,0.244606 2.225,0.733999 0.575,0.479288 0.863,1.078487 0.863,1.797509 0,0.718931 -0.288,1.323093 -0.863,1.812396 -0.565,0.479377 -1.306,0.719021 -2.225,0.719021 -0.907,0 -1.649,-0.239644 -2.224,-0.719021 -0.576,-0.489303 -0.864,-1.093465 -0.864,-1.812396 z"
     fill="#010f1c"
     id="path6"
     style="stroke-width:0.949881" />
  <path
     d="M 13.2664,11.9468 1.70877,17.663 22.4177,11.8739 C 26.5647,10.1845 29.7031,8.9234202 29.7031,8.9223902 27.7529,9.2592402 20.1676,10.6652 13.2664,11.9468 Z"
     fill="url(#paint0_linear_2078_842)"
     id="path7"
     style="fill:url(#paint0_linear_2078_842)" />
  <path
     d="m 3.29858,24.1329 c 0,0 0.647,2.6342 1.16562,4.7498 0.00476,-8e-4 0.00962,-8e-4 0.01438,0 0.19851,0.6475 0.62608,1.2005 1.20275,1.5557 0.57668,0.3551 1.26297,0.4881 1.93055,0.374 C 7.61907,30.8247 34,24.4071 34,24.4071 l -1.3515,-5.5179 z"
     fill="url(#paint1_radial_2078_842)"
     id="path8"
     style="fill:url(#paint1_radial_2078_842)" />
  <path
     d="m 20.9789,27.5682 -0.0862,0.0513 -0.2054,4.2794 c 0,0 12.2846,-6.9731 13.2479,-7.4805 -0.6993,0.1705 -6.8016,1.6545 -12.9563,3.1498 z"
     fill="url(#paint2_linear_2078_842)"
     id="path9"
     style="fill:url(#paint2_linear_2078_842)" />
  <path
     d="m 1.70877,17.663 1.39053,5.6668 c 0,0 28.9073,-7.0461 28.9227,-6.9834 0.0154,0.0626 -1.6431,-6.7010398 -1.6431,-6.7010398 z"
     fill="url(#paint3_linear_2078_842)"
     id="path10"
     style="fill:url(#paint3_linear_2078_842)" />
  <path
     d="M 3.29651,24.134 24.4861,20.3465 c 4.264,-2.2717 7.5308,-4.0052 7.536,-3.996 -0.0113,-0.0472 -14.4886,3.4671 -22.95296,5.5251 z"
     fill="url(#paint4_linear_2078_842)"
     id="path11"
     style="fill:url(#paint4_linear_2078_842)" />
  <path
     opacity="0.4"
     d="M 20.8116,27.6103 C 27.5896,25.9589 33.998,24.403 33.998,24.403 l -1.3495,-5.5138 -6.28,1.1214 c -1.2775,3.2617 -3.2236,5.9031 -5.5569,7.5997 z"
     fill="#37c4ee"
     id="path12" />
  <path
     d="m 27.1819,17.4925 c 2.8848,-0.6932 4.8371,-1.1553 4.8402,-1.1379 0.0174,0.0688 -1.6432,-6.7010098 -1.6432,-6.7010098 L 27.9706,10.3263 c 0.3451,1.9656 0.2126,4.7836 -0.7887,7.1662 z"
     fill="#f9c02e"
     id="path13" />
  <path
     d="m 28.9339,3.8121402 c -0.3964,-1.37717 -1.5579,-2.34561 -3.1836,-1.95125 l -5.3536,1.31863 c 0.1783,0.35051 0.3261,0.71576 0.4416,1.09168 0.0987,0.10339 0.1694,0.2303 0.2054,0.36868 0.028,0.11295 0.0334,0.23031 0.0161,0.34537 -0.0174,0.11506 -0.0573,0.22557 -0.1174,0.32522 -0.06,0.09966 -0.1392,0.18651 -0.2328,0.25558 -0.0936,0.06908 -0.2,0.11904 -0.3129,0.14702 -0.113,0.02799 -0.2303,0.03345 -0.3454,0.01608 -0.115,-0.01737 -0.2256,-0.05723 -0.3252,-0.11731 -0.0997,-0.06008 -0.1865,-0.1392 -0.2556,-0.23284 -0.0691,-0.09364 -0.119,-0.19997 -0.147,-0.31292 -0.0415,-0.17091 -0.0282,-0.35056 0.038,-0.51349 0.0472,0.13967 0.0904,0.28139 0.1263,0.42722 l 1.1451,-0.28344 c -0.4325,-1.60208 -1.4748,-2.97129 -2.9039,-3.81472099 -1.4291,-0.8434305 -3.1315,-1.094104 -4.7431,-0.698393 -1.6116,0.395711 -3.00427,1.40638399 -3.8802,2.81580399 -0.87592,1.40942 -1.1655,3.10566 -0.80679,4.72586 l 0.97357,-0.23929 c 0,0.01335 0,0.02773 0.00924,0.04108 H 9.27351 c 0.03957,0.1535 0.03725,0.31481 -0.00673,0.46711 -0.04397,0.1523 -0.12799,0.29001 -0.2433,0.3988 -0.1153,0.10878 -0.25767,0.18464 -0.41227,0.21969 -0.15459,0.03504 -0.31576,0.02798 -0.4667,-0.02045 -0.15094,-0.04843 -0.28613,-0.13646 -0.39148,-0.25491 -0.10534,-0.11845 -0.17699,-0.26299 -0.20748,-0.41855 -0.03048,-0.15556 -0.01869,-0.31645 0.03416,-0.4659 0.05284,-0.14946 0.1448,-0.282 0.2663,-0.38382 -0.03133,-0.26519 -0.04745,-0.53195 -0.04827,-0.79899 l -5.69253,1.39669 c 0,0 0,0 0,0.00616 H 2.09802 c -0.70023,0.17224 -1.30507899,0.61203 -1.68482799,1.22504 -0.379748,0.61301 -0.5041503,1.3504198 -0.3465257,2.0541198 h -0.0061616 l 0.8123383,3.3099 c 0,0 29.29245699,-5.4799198 29.31095699,-5.4131698 l -1.2375,-5.04143 z M 13.289,1.2231302 c 1.0604,-0.25989299 2.1761,-0.17453 3.1846,0.24366 1.0086,0.4182 1.8573,1.14739 2.4227,2.08142 l -9.50161,2.33123 c 0.06869,-1.08966 0.48347,-2.12894 1.18391,-2.96646 0.7005,-0.83753 1.65,-1.42955 2.7104,-1.68985 z"
     fill="url(#paint5_radial_2078_842)"
     id="path14"
     style="fill:url(#paint5_radial_2078_842)" />
  <defs
     id="defs33">
    <linearGradient
       id="paint0_linear_2078_842"
       x1="16.533199"
       y1="17.655001"
       x2="14.6036"
       y2="7.4493899"
       gradientUnits="userSpaceOnUse">
      <stop
         offset="0.46"
         stop-color="#F1634C"
         id="stop14" />
      <stop
         offset="0.49"
         stop-color="#E8574E"
         id="stop15" />
      <stop
         offset="0.55"
         stop-color="#D03652"
         id="stop16" />
      <stop
         offset="0.59"
         stop-color="#BE1E55"
         id="stop17" />
    </linearGradient>
    <radialGradient
       id="paint1_radial_2078_842"
       cx="0"
       cy="0"
       r="1"
       gradientUnits="userSpaceOnUse"
       gradientTransform="matrix(10.542211,-2.5874646,2.5874646,10.542211,18.6505,24.2605)">
      <stop
         stop-color="#20C1E9"
         id="stop18" />
      <stop
         offset="1"
         stop-color="#0CAEC7"
         id="stop19" />
    </radialGradient>
    <linearGradient
       id="paint2_linear_2078_842"
       x1="27.504299"
       y1="28.9387"
       x2="26.541"
       y2="25.014099"
       gradientUnits="userSpaceOnUse">
      <stop
         offset="0.3"
         stop-color="#018EA2"
         id="stop20" />
      <stop
         offset="0.41"
         stop-color="#018A9E"
         id="stop21" />
      <stop
         offset="0.53"
         stop-color="#038091"
         id="stop22" />
      <stop
         offset="0.63"
         stop-color="#047280"
         id="stop23" />
    </linearGradient>
    <linearGradient
       id="paint3_linear_2078_842"
       x1="27.076"
       y1="14.0057"
       x2="5.5676699"
       y2="19.2847"
       gradientUnits="userSpaceOnUse">
      <stop
         stop-color="#FDD309"
         id="stop24" />
      <stop
         offset="1"
         stop-color="#F79420"
         id="stop25" />
    </linearGradient>
    <linearGradient
       id="paint4_linear_2078_842"
       x1="18.2258"
       y1="22.7976"
       x2="17.5217"
       y2="19.6014"
       gradientUnits="userSpaceOnUse">
      <stop
         offset="0.33"
         stop-color="#FFDD0F"
         id="stop26" />
      <stop
         offset="0.45"
         stop-color="#FDD910"
         id="stop27" />
      <stop
         offset="0.56"
         stop-color="#F8CC13"
         id="stop28" />
      <stop
         offset="0.69"
         stop-color="#EFB618"
         id="stop29" />
      <stop
         offset="0.81"
         stop-color="#E3991F"
         id="stop30" />
      <stop
         offset="0.94"
         stop-color="#D37328"
         id="stop31" />
    </linearGradient>
    <radialGradient
       id="paint5_radial_2078_842"
       cx="0"
       cy="0"
       r="1"
       gradientUnits="userSpaceOnUse"
       gradientTransform="matrix(11.101803,-2.7248099,2.7248099,11.101803,14.2255,6.2404502)">
      <stop
         stop-color="#ED3B87"
         id="stop32" />
      <stop
         offset="1"
         stop-color="#DB377D"
         id="stop33" />
    </radialGradient>
  </defs>
  <text
     xml:space="preserve"
     style="font-size:31.7317px;fill:#000000;stroke-width:1.08177"
     x="39.759121"
     y="24.693951"
     id="text48"
     transform="scale(1.0131995,0.98697246)"><tspan
       sodipodi:role="line"
       id="tspan48"
       x="39.759121"
       y="24.693951"
       style="font-style:normal;font-variant:normal;font-weight:bold;font-stretch:normal;font-family:sans-serif;-inkscape-font-specification:sans-serif;stroke-width:1.08177">ASL</tspan><tspan
       sodipodi:role="line"
       x="39.759121"
       y="64.358574"
       id="tspan49"
       style="stroke-width:1.08177" /></text>
  <text
     xml:space="preserve"
     style="font-size:12px;fill:#000000"
     x="45.166172"
     y="33.899555"
     id="text50"><tspan
       sodipodi:role="line"
       id="tspan50"
       x="45.166172"
       y="33.899555"
       style="font-size:12px">Cosmetics</tspan></text>
</svg>

<svg width="135" height="35" viewBox="0 0 135 35" fill="none" xmlns="http://www.w3.org/2000/svg">
<path d="M54.2939 20.5752C54.2939 20.1989 54.2386 19.8613 54.1279 19.5625C54.0173 19.2526 53.8125 18.9648 53.5137 18.6992C53.2148 18.4336 52.7832 18.168 52.2188 17.9023C51.6654 17.6257 50.9349 17.3379 50.0273 17.0391C48.9648 16.6849 47.9411 16.2865 46.9561 15.8438C45.971 15.39 45.0911 14.8643 44.3164 14.2666C43.5417 13.6579 42.9274 12.9495 42.4736 12.1416C42.0199 11.3226 41.793 10.3708 41.793 9.28613C41.793 8.24577 42.0254 7.31055 42.4902 6.48047C42.9551 5.63932 43.6025 4.92546 44.4326 4.33887C45.2738 3.74121 46.2588 3.28743 47.3877 2.97754C48.5166 2.65658 49.7507 2.49609 51.0898 2.49609C52.8607 2.49609 54.4212 2.80599 55.7715 3.42578C57.1328 4.03451 58.1953 4.90332 58.959 6.03223C59.7337 7.15006 60.1211 8.47266 60.1211 10H54.3271C54.3271 9.39128 54.1999 8.85449 53.9453 8.38965C53.7018 7.9248 53.3311 7.55957 52.833 7.29395C52.335 7.02832 51.7096 6.89551 50.957 6.89551C50.2266 6.89551 49.6123 7.00619 49.1143 7.22754C48.6162 7.44889 48.2399 7.74772 47.9854 8.12402C47.7308 8.48926 47.6035 8.89323 47.6035 9.33594C47.6035 9.70117 47.7031 10.0332 47.9023 10.332C48.1126 10.6198 48.4059 10.891 48.7822 11.1455C49.1696 11.4001 49.6344 11.6436 50.1768 11.876C50.7301 12.1084 51.3499 12.3353 52.0361 12.5566C53.32 12.9661 54.46 13.4255 55.4561 13.9346C56.4632 14.4326 57.3099 15.0026 57.9961 15.6445C58.6934 16.2754 59.2191 16.9948 59.5732 17.8027C59.9385 18.6107 60.1211 19.5238 60.1211 20.542C60.1211 21.6266 59.9108 22.5895 59.4902 23.4307C59.0697 24.2718 58.4665 24.9857 57.6807 25.5723C56.8949 26.1478 55.9541 26.585 54.8584 26.8838C53.7627 27.1826 52.5397 27.332 51.1895 27.332C49.9499 27.332 48.7269 27.1771 47.5205 26.8672C46.3252 26.5462 45.2406 26.0592 44.2666 25.4062C43.2926 24.7422 42.5124 23.8955 41.9258 22.8662C41.3503 21.8258 41.0625 20.5918 41.0625 19.1641H46.9062C46.9062 19.8724 47.0003 20.4701 47.1885 20.957C47.3766 21.444 47.6533 21.8369 48.0186 22.1357C48.3838 22.4235 48.832 22.6338 49.3633 22.7666C49.8945 22.8883 50.5033 22.9492 51.1895 22.9492C51.931 22.9492 52.5286 22.8441 52.9824 22.6338C53.4362 22.4124 53.7682 22.1247 53.9785 21.7705C54.1888 21.4053 54.2939 21.0068 54.2939 20.5752Z" fill="#010F1C"/>
<path d="M68.3389 1.5V27H62.7441V1.5H68.3389ZM67.6748 17.4043L66.3633 17.4375C66.3633 16.1758 66.5182 15.0137 66.8281 13.9512C67.138 12.8887 67.5807 11.9645 68.1562 11.1787C68.7318 10.3929 69.4235 9.78418 70.2314 9.35254C71.0394 8.9209 71.9359 8.70508 72.9209 8.70508C73.8063 8.70508 74.6143 8.83236 75.3447 9.08691C76.0863 9.34147 76.7227 9.75098 77.2539 10.3154C77.7962 10.8799 78.2113 11.6159 78.499 12.5234C78.7979 13.431 78.9473 14.5378 78.9473 15.8438V27H73.3193V15.8105C73.3193 15.0801 73.2142 14.5156 73.0039 14.1172C72.8047 13.7077 72.5169 13.4255 72.1406 13.2705C71.7643 13.1045 71.305 13.0215 70.7627 13.0215C70.1097 13.0215 69.5785 13.1322 69.1689 13.3535C68.7594 13.5749 68.444 13.8848 68.2227 14.2832C68.0124 14.6706 67.8685 15.1299 67.791 15.6611C67.7135 16.1924 67.6748 16.7734 67.6748 17.4043Z" fill="#010F1C"/>
<path d="M81.3545 18.2012V17.8525C81.3545 16.5355 81.5426 15.3236 81.9189 14.2168C82.2952 13.099 82.8486 12.1305 83.5791 11.3115C84.3096 10.4925 85.2116 9.85612 86.2852 9.40234C87.3587 8.9375 88.5983 8.70508 90.0039 8.70508C91.4206 8.70508 92.6657 8.9375 93.7393 9.40234C94.8239 9.85612 95.7314 10.4925 96.4619 11.3115C97.1924 12.1305 97.7458 13.099 98.1221 14.2168C98.4984 15.3236 98.6865 16.5355 98.6865 17.8525V18.2012C98.6865 19.5072 98.4984 20.7191 98.1221 21.8369C97.7458 22.9437 97.1924 23.9121 96.4619 24.7422C95.7314 25.5612 94.8294 26.1976 93.7559 26.6514C92.6823 27.1051 91.4427 27.332 90.0371 27.332C88.6315 27.332 87.3864 27.1051 86.3018 26.6514C85.2171 26.1976 84.3096 25.5612 83.5791 24.7422C82.8486 23.9121 82.2952 22.9437 81.9189 21.8369C81.5426 20.7191 81.3545 19.5072 81.3545 18.2012ZM86.9492 17.8525V18.2012C86.9492 18.8763 86.999 19.5072 87.0986 20.0938C87.1982 20.6803 87.3643 21.195 87.5967 21.6377C87.8291 22.0693 88.1445 22.4069 88.543 22.6504C88.9414 22.8939 89.4395 23.0156 90.0371 23.0156C90.6237 23.0156 91.1107 22.8939 91.498 22.6504C91.8965 22.4069 92.2119 22.0693 92.4443 21.6377C92.6768 21.195 92.8428 20.6803 92.9424 20.0938C93.042 19.5072 93.0918 18.8763 93.0918 18.2012V17.8525C93.0918 17.1995 93.042 16.5853 92.9424 16.0098C92.8428 15.4232 92.6768 14.9085 92.4443 14.4658C92.2119 14.012 91.8965 13.6579 91.498 13.4033C91.0996 13.1488 90.6016 13.0215 90.0039 13.0215C89.4173 13.0215 88.9248 13.1488 88.5264 13.4033C88.139 13.6579 87.8291 14.012 87.5967 14.4658C87.3643 14.9085 87.1982 15.4232 87.0986 16.0098C86.999 16.5853 86.9492 17.1995 86.9492 17.8525Z" fill="#010F1C"/>
<path d="M108.033 27H102.405V7.57617C102.405 6.18164 102.688 5.00846 103.252 4.05664C103.816 3.10482 104.613 2.38542 105.643 1.89844C106.672 1.40039 107.889 1.15137 109.295 1.15137C109.782 1.15137 110.241 1.18457 110.673 1.25098C111.104 1.31738 111.525 1.40039 111.935 1.5L111.951 5.61719C111.752 5.56185 111.547 5.52311 111.337 5.50098C111.127 5.47884 110.867 5.46777 110.557 5.46777C110.014 5.46777 109.555 5.55078 109.179 5.7168C108.802 5.87174 108.515 6.1097 108.315 6.43066C108.127 6.74056 108.033 7.1224 108.033 7.57617V27ZM111.52 9.03711V12.9219H99.8154V9.03711H111.52Z" fill="#010F1C"/>
<path d="M119.04 24.8916L123.688 9.03711H129.698L122.477 29.6729C122.322 30.1266 122.117 30.6136 121.862 31.1338C121.608 31.665 121.259 32.1686 120.816 32.6445C120.374 33.1204 119.804 33.5078 119.106 33.8066C118.42 34.1055 117.568 34.2549 116.55 34.2549C116.007 34.2549 115.609 34.2272 115.354 34.1719C115.111 34.1276 114.735 34.0446 114.226 33.9229V29.9219C114.369 29.9219 114.491 29.9219 114.591 29.9219C114.701 29.9219 114.823 29.9219 114.956 29.9219C115.554 29.9219 116.03 29.861 116.384 29.7393C116.749 29.6175 117.026 29.4404 117.214 29.208C117.413 28.9756 117.568 28.6934 117.679 28.3613L119.04 24.8916ZM117.861 9.03711L121.397 21.6045L122.012 27.5312H118.26L111.868 9.03711H117.861Z" fill="#010F1C"/>
<path d="M128.735 24.377C128.735 23.5801 129.023 22.916 129.599 22.3848C130.174 21.8424 130.916 21.5713 131.823 21.5713C132.742 21.5713 133.483 21.8424 134.048 22.3848C134.623 22.916 134.911 23.5801 134.911 24.377C134.911 25.1738 134.623 25.8434 134.048 26.3857C133.483 26.917 132.742 27.1826 131.823 27.1826C130.916 27.1826 130.174 26.917 129.599 26.3857C129.023 25.8434 128.735 25.1738 128.735 24.377Z" fill="#010F1C"/>
<path d="M13.2664 11.9468L1.70877 17.663L22.4177 11.8739C26.5647 10.1845 29.7031 8.92342 29.7031 8.92239C27.7529 9.25924 20.1676 10.6652 13.2664 11.9468Z" fill="url(#paint0_linear_2078_842)"/>
<path d="M3.29858 24.1329C3.29858 24.1329 3.94558 26.7671 4.4642 28.8827C4.46896 28.8819 4.47382 28.8819 4.47858 28.8827C4.67709 29.5302 5.10466 30.0832 5.68133 30.4384C6.25801 30.7935 6.9443 30.9265 7.61188 30.8124C7.61907 30.8247 34 24.4071 34 24.4071L32.6485 18.8892L3.29858 24.1329Z" fill="url(#paint1_radial_2078_842)"/>
<path d="M20.9789 27.5682L20.8927 27.6195L20.6873 31.8989C20.6873 31.8989 32.9719 24.9258 33.9352 24.4184C33.2359 24.5889 27.1336 26.0729 20.9789 27.5682Z" fill="url(#paint2_linear_2078_842)"/>
<path d="M1.70877 17.663L3.0993 23.3298C3.0993 23.3298 32.0066 16.2837 32.022 16.3464C32.0374 16.409 30.3789 9.64536 30.3789 9.64536L1.70877 17.663Z" fill="url(#paint3_linear_2078_842)"/>
<path d="M3.29651 24.134L24.4861 20.3465C28.7501 18.0748 32.0169 16.3413 32.0221 16.3505C32.0108 16.3033 17.5335 19.8176 9.06914 21.8756L3.29651 24.134Z" fill="url(#paint4_linear_2078_842)"/>
<path opacity="0.4" d="M20.8116 27.6103C27.5896 25.9589 33.998 24.403 33.998 24.403L32.6485 18.8892L26.3685 20.0106C25.091 23.2723 23.1449 25.9137 20.8116 27.6103Z" fill="#37C4EE"/>
<path d="M27.1819 17.4925C30.0667 16.7993 32.019 16.3372 32.0221 16.3546C32.0395 16.4234 30.3789 9.65359 30.3789 9.65359L27.9706 10.3263C28.3157 12.2919 28.1832 15.1099 27.1819 17.4925Z" fill="#F9C02E"/>
<path d="M28.9339 3.81214C28.5375 2.43497 27.376 1.46653 25.7503 1.86089L20.3967 3.17952C20.575 3.53003 20.7228 3.89528 20.8383 4.2712C20.937 4.37459 21.0077 4.5015 21.0437 4.63988C21.0717 4.75283 21.0771 4.87019 21.0598 4.98525C21.0424 5.10031 21.0025 5.21082 20.9424 5.31047C20.8824 5.41013 20.8032 5.49698 20.7096 5.56605C20.616 5.63513 20.5096 5.68509 20.3967 5.71307C20.2837 5.74106 20.1664 5.74652 20.0513 5.72915C19.9363 5.71178 19.8257 5.67192 19.7261 5.61184C19.6264 5.55176 19.5396 5.47264 19.4705 5.379C19.4014 5.28536 19.3515 5.17903 19.3235 5.06608C19.282 4.89517 19.2953 4.71552 19.3615 4.55259C19.4087 4.69226 19.4519 4.83398 19.4878 4.97981L20.6329 4.69637C20.2004 3.09429 19.1581 1.72508 17.729 0.881649C16.2999 0.0382185 14.5975 -0.212455 12.9859 0.183256C11.3743 0.578967 9.98163 1.58964 9.1057 2.99906C8.22978 4.40848 7.9402 6.10472 8.29891 7.72492L9.27248 7.48563C9.27248 7.49898 9.27248 7.51336 9.28172 7.52671H9.27351C9.31308 7.68021 9.31076 7.84152 9.26678 7.99382C9.22281 8.14612 9.13879 8.28383 9.02348 8.39262C8.90818 8.5014 8.76581 8.57726 8.61121 8.61231C8.45662 8.64735 8.29545 8.64029 8.14451 8.59186C7.99357 8.54343 7.85838 8.4554 7.75303 8.33695C7.64769 8.2185 7.57604 8.07396 7.54555 7.9184C7.51507 7.76284 7.52686 7.60195 7.57971 7.4525C7.63255 7.30304 7.72451 7.1705 7.84601 7.06868C7.81468 6.80349 7.79856 6.53673 7.79774 6.26969L2.10521 7.66638C2.10521 7.66638 2.10521 7.66638 2.10521 7.67254H2.09802C1.39779 7.84478 0.792941 8.28457 0.413192 8.89758C0.033444 9.51059 -0.0909583 10.248 0.0666663 10.9517H0.0605047L0.872843 14.2616C0.872843 14.2616 30.1653 8.78168 30.1838 8.84843L28.9463 3.807L28.9339 3.81214ZM13.289 1.22313C14.3494 0.963237 15.4651 1.0486 16.4736 1.46679C17.4822 1.88499 18.3309 2.61418 18.8963 3.54821L9.39469 5.87944C9.46338 4.78978 9.87816 3.7505 10.5786 2.91298C11.2791 2.07545 12.2286 1.48343 13.289 1.22313Z" fill="url(#paint5_radial_2078_842)"/>
<defs>
<linearGradient id="paint0_linear_2078_842" x1="16.5332" y1="17.655" x2="14.6036" y2="7.44939" gradientUnits="userSpaceOnUse">
<stop offset="0.46" stop-color="#F1634C"/>
<stop offset="0.49" stop-color="#E8574E"/>
<stop offset="0.55" stop-color="#D03652"/>
<stop offset="0.59" stop-color="#BE1E55"/>
</linearGradient>
<radialGradient id="paint1_radial_2078_842" cx="0" cy="0" r="1" gradientUnits="userSpaceOnUse" gradientTransform="translate(18.6505 24.2605) rotate(-13.79) scale(10.8551 10.8551)">
<stop stop-color="#20C1E9"/>
<stop offset="1" stop-color="#0CAEC7"/>
</radialGradient>
<linearGradient id="paint2_linear_2078_842" x1="27.5043" y1="28.9387" x2="26.541" y2="25.0141" gradientUnits="userSpaceOnUse">
<stop offset="0.3" stop-color="#018EA2"/>
<stop offset="0.41" stop-color="#018A9E"/>
<stop offset="0.53" stop-color="#038091"/>
<stop offset="0.63" stop-color="#047280"/>
</linearGradient>
<linearGradient id="paint3_linear_2078_842" x1="27.076" y1="14.0057" x2="5.56767" y2="19.2847" gradientUnits="userSpaceOnUse">
<stop stop-color="#FDD309"/>
<stop offset="1" stop-color="#F79420"/>
</linearGradient>
<linearGradient id="paint4_linear_2078_842" x1="18.2258" y1="22.7976" x2="17.5217" y2="19.6014" gradientUnits="userSpaceOnUse">
<stop offset="0.33" stop-color="#FFDD0F"/>
<stop offset="0.45" stop-color="#FDD910"/>
<stop offset="0.56" stop-color="#F8CC13"/>
<stop offset="0.69" stop-color="#EFB618"/>
<stop offset="0.81" stop-color="#E3991F"/>
<stop offset="0.94" stop-color="#D37328"/>
</linearGradient>
<radialGradient id="paint5_radial_2078_842" cx="0" cy="0" r="1" gradientUnits="userSpaceOnUse" gradientTransform="translate(14.2255 6.24045) rotate(-13.79) scale(11.4313 11.4313)">
<stop stop-color="#ED3B87"/>
<stop offset="1" stop-color="#DB377D"/>
</radialGradient>
</defs>
</svg>
